X:1
T:Title
%%score { ( 1 3 ) | 2 }
L:1/8
M:4/4
K:Bb
V:1 treble nm="Grand Piano"
V:3 treble 
V:2 bass 
V:1
 z4 z2[Q:1/4=100] [DF][DF] | [DB]>[DB] [DB][DB] [DB][DB] [FB]>c | d6 A>B | c>c cc cc d>c | %4
 [DB]6 [DF][DF] | [DB]>[DB] [DB][Ec] [Fd]2 [FB][FA] | G>G G[FA] [GB]2 [EA][DB] | c>c cc c2 d>c | %8
[M:3/4] [DB]6 |[M:1/4] [DB]>[FA] |[M:4/4] [EG]6[K:bass][K:treble] z2 |[M:3/4] [Fd]6 |[M:1/4] d>e | %13
[M:4/4] f>e dc B[FA][EG][Ge] |[M:7/8] d2 c2 [DB]3 |] %15
V:2
 z4 z2 [B,,B,][B,,B,] | [B,,F,]>[B,,F,] [B,,F,][B,,F,] [B,,F,][B,,F,] [D,B,]>[K:treble][F,A,F] | %2
 [B,F]6[K:bass] [F,CE]>[F,B,D] | %3
 [F,A,F]>[F,A,F] [F,A,F][K:treble][F,A,F] [F,A,F][F,A,F] [B,F]>[K:bass][F,A,E] | %4
 [B,,B,]6 [B,,B,][B,,B,] | [B,,F,]>[B,,F,] [B,,F,][B,,F,] [B,,B,]2 [D,B,][D,B,] | %6
 [E,B,E]>[E,B,E] [E,B,E][E,B,] [E,B,]2 [C,F,][B,,F,] | %7
 [F,A,F]>[F,A,F] [F,A,F][F,A,F] [F,A,F]2 [F,B,F]>[F,A,E] |[M:3/4] [B,,B,]6 | %9
[M:1/4] [B,,B,]>[B,,B,] |[M:4/4] [E,B,]>E, E,E, D,<E, E,>[E,B,] | %11
[M:3/4] [B,,B,]>B,, B,,B,, B,,<B,, |[M:1/4][K:treble] [B,F]>[B,CF] | %13
[M:4/4] [B,DF]>[B,CF] [B,F][K:bass][F,A,E] [G,B,D][D,B,][E,B,][E,B,] | %14
[M:7/8] [F,B,F]2 [F,E]2 [B,,F,]3 |] %15
V:3
 x8 | x8 | x8 | x8 | x8 | x8 | x8 | x8 |[M:3/4] x6 |[M:1/4] x2 | %10
[M:4/4] z z/[K:bass] B,/ B,B, B,<B,[K:treble] [B,GB]>[Gc] |[M:3/4] z z/ B,/ B,B, B,<B, | %12
[M:1/4] x2 |[M:4/4] x8 |[M:7/8] x7 |] %15

